assets/img/logo-minestore-white.svg

<?xml version="1.0" encoding="UTF-8" standalone="no"?>
<svg width="217px" height="65px" viewBox="0 0 217 65" version="1.1" xmlns="http://www.w3.org/2000/svg" xmlns:xlink="http://www.w3.org/1999/xlink">
    <!-- Generator: Sketch 39 (31667) - http://www.bohemiancoding.com/sketch -->
    <title>Page 1</title>
    <desc>Created with Sketch.</desc>
    <defs>
        <polygon id="path-1" points="0 65 216.404 65 216.404 0.2 0 0.2"></polygon>
    </defs>
    <g id="Page-1" stroke="none" stroke-width="1" fill="none" fill-rule="evenodd">
        <g transform="translate(0.000000, -1.000000)">
            <path d="M30.7998,1 L8.9998,10.5 L-0.0002,33.4 L8.9998,56.3 L30.8998,65.8 L52.7008,56.3 L61.7008,33.4 L52.7008,10.5 L30.7998,1 Z M11.0998,54.1 L2.8998,33.5 L11.0998,12.7 L30.7998,4.1 L50.5998,12.7 L58.7998,33.4 L50.5998,54.1 L30.8998,62.7 L11.0998,54.1 Z" id="Fill-1" fill="#FFFFFF"></path>
            <polygon id="Fill-2" fill="#FFFFFF" points="32.4 44 29.8 44 23.4 27 23.4 44 19.7 44 19.7 22.2 25.3 22.2 31.2 38.2 37.2 22.2 42.7 22.2 42.7 44 39.1 44 39.1 27"></polygon>
            <g id="Group-14" transform="translate(0.000000, 0.800000)">
                <path d="M99.5,39.7 L99.5,31.5 C99.587,30.311 99.417,29.117 99,28 C98.596,27.233 97.76,26.796 96.9,26.9 C95.621,27.001 94.451,27.659 93.7,28.7 C93.785,29.564 93.819,30.432 93.8,31.3 L93.8,39.7 L89.4,39.7 L89.4,31.5 C89.515,30.285 89.379,29.06 89,27.9 C88.58,27.15 87.756,26.718 86.9,26.8 C85.7,26.916 84.59,27.489 83.8,28.4 L83.8,39.6 L79.5,39.6 L79.5,23.5 L83.3,23.5 L83.6,25.5 C84.7,24.016 86.453,23.158 88.3,23.2 C90.214,23.181 91.983,24.219 92.9,25.9 C94.092,24.104 96.148,23.075 98.3,23.2 C99.952,23.202 101.507,23.979 102.5,25.3 C103.8,26.9 103.9,29 103.9,31.4 L103.9,39.8 L99.5,39.7 L99.5,39.7 Z" id="Fill-3" fill="#FFFFFF"></path>
                <mask id="mask-2" fill="white">
                    <use xlink:href="#path-1"></use>
                </mask>
                <g id="Clip-6"></g>
                <path d="M107.4,39.7 L111.8,39.7 L111.8,23.5 L107.4,23.5 L107.4,39.7 Z M107.4,21.3 L111.8,21.3 L111.8,17.6 L107.4,17.6 L107.4,21.3 Z" id="Fill-5" fill="#FFFFFF" mask="url(#mask-2)"></path>
                <path d="M119.1,23.5 L119.4,25.7 C120.544,24.071 122.409,23.1 124.4,23.1 C126.08,23.1 127.667,23.875 128.7,25.2 C130,26.8 130.1,28.9 130.1,31.2 L130.1,39.6 L125.7,39.6 L125.7,31.5 C125.787,30.311 125.617,29.117 125.2,28 C124.796,27.233 123.96,26.796 123.1,26.9 C121.637,26.907 120.295,27.713 119.6,29 L119.6,39.7 L115.2,39.7 L115.2,23.5 L119.1,23.5 L119.1,23.5 Z" id="Fill-7" fill="#FFFFFF" mask="url(#mask-2)"></path>
                <path d="M144.1,29.7 C144.089,27.992 142.708,26.611 141,26.6 C139.177,26.597 137.616,27.905 137.3,29.7 L144.1,29.7 L144.1,29.7 Z M137,32.7 C137.131,34.875 138.922,36.578 141.1,36.6 C142.842,36.662 144.469,35.733 145.3,34.2 L148.2,36.1 C146.69,38.727 143.825,40.276 140.8,40.1 C135.9,40.1 132.6,36.7 132.6,31.8 C132.414,27.246 135.947,23.4 140.5,23.2 L140.8,23.2 C144.904,23.001 148.393,26.167 148.592,30.271 C148.598,30.414 148.601,30.557 148.6,30.7 C148.583,31.404 148.516,32.106 148.4,32.8 L137,32.7 L137,32.7 Z" id="Fill-8" fill="#FFFFFF" mask="url(#mask-2)"></path>
                <path d="M159.2,27.4 C158.354,26.703 157.296,26.315 156.2,26.3 C155.085,26.222 154.092,26.999 153.9,28.1 L153.9,28.3 C153.9,29.5 155.4,30.1 156.9,30.6 C158.9,31.4 161.4,32.5 161.4,35.2 C161.4,38.6 158.7,40 155.8,40 C153.754,40.081 151.789,39.191 150.5,37.6 L152.5,36 C153.339,37.012 154.585,37.599 155.9,37.6 C157.4,37.6 158.7,36.8 158.7,35.2 C158.7,34 157.3,33.4 155.7,32.8 C153.7,32 151.3,31.1 151.3,28.3 C151.3,25.2 153.7,23.7 156.3,23.7 C158.017,23.699 159.681,24.3 161,25.4 L159.2,27.4 Z" id="Fill-9" fill="#FFFFFF" mask="url(#mask-2)"></path>
                <path d="M167.9,26.8 L167.9,35 C168,36.6 168.5,37.6 170,37.6 C170.587,37.574 171.163,37.438 171.7,37.2 L172.5,39.4 C171.592,39.831 170.605,40.07 169.6,40.1 C167.855,40.286 166.192,39.313 165.5,37.7 C165.132,36.675 164.962,35.589 165,34.5 L165,26.9 L163,26.9 L163,24.4 L165.1,24.4 L165.1,20.7 L167.9,20.7 L167.9,24.4 L172.2,24.4 L172.2,26.9 L167.9,26.9 L167.9,26.8 L167.9,26.8 Z" id="Fill-10" fill="#FFFFFF" mask="url(#mask-2)"></path>
                <path d="M181.5,26.5 C178.662,26.576 176.423,28.938 176.499,31.776 C176.5,31.784 176.5,31.792 176.5,31.8 L176.5,31.9 C176.314,34.749 178.473,37.21 181.323,37.396 C181.348,37.397 181.374,37.399 181.4,37.4 L181.5,37.4 C184.338,37.324 186.577,34.962 186.501,32.124 C186.5,32.116 186.5,32.108 186.5,32.1 L186.5,32 C186.603,29.113 184.383,26.672 181.5,26.5 M189.3,32 C189.359,36.305 186,39.885 181.7,40.1 L181.5,40.1 C177.194,40.094 173.706,36.606 173.7,32.3 L173.7,32.1 C173.605,27.777 177.034,24.195 181.357,24.101 C181.371,24.101 181.386,24.1 181.4,24.1 L181.6,24.1 C185.906,24.106 189.394,27.594 189.4,31.9 C189.3,31.9 189.3,31.9 189.3,32" id="Fill-11" fill="#FFFFFF" mask="url(#mask-2)"></path>
                <path d="M195.4,26.9 C196.3,25.2 197.7,24 199.4,24 C199.971,24.017 200.54,24.084 201.1,24.2 L200.6,27.2 C200.162,26.995 199.683,26.893 199.2,26.9 C197.6,26.9 196.5,27.8 195.5,29.5 L195.5,39.8 L192.7,39.8 L192.7,24.3 L195.5,24.3 L195.4,26.9 Z" id="Fill-12" fill="#FFFFFF" mask="url(#mask-2)"></path>
                <path d="M204.7,30.5 L213.4,30.5 C213.352,28.256 211.544,26.448 209.3,26.4 C206.8,26.4 205.2,28.2 204.7,30.5 L204.7,30.5 Z M204.5,32.7 C204.5,35.461 206.739,37.7 209.5,37.7 C211.382,37.8 213.16,36.834 214.1,35.2 L216.1,36.5 C214.738,38.882 212.138,40.279 209.4,40.1 C204.5,40.1 201.8,36.5 201.8,32 C201.572,27.814 204.781,24.237 208.967,24.009 C209.044,24.005 209.122,24.002 209.2,24 L209.4,24 C213.209,23.95 216.34,26.991 216.4,30.8 L216.4,31.2 C216.417,31.735 216.383,32.271 216.3,32.8 L204.5,32.7 Z" id="Fill-13" fill="#FFFFFF" mask="url(#mask-2)"></path>
            </g>
        </g>
    </g>
</svg>

<svg width="217" height="65" viewBox="0 0 217 65" xmlns="http://www.w3.org/2000/svg" xmlns:xlink="http://www.w3.org/1999/xlink"><title>Page 1</title><defs><path id="a" d="M0 65h216.404V.2H0z"/></defs><g fill="none" fill-rule="evenodd"><path d="M30.8 0L9 9.5 0 32.4l9 22.9 21.9 9.5 21.8-9.5 9-22.9-9-22.9L30.8 0zM11.1 53.1L2.9 32.5l8.2-20.8 19.7-8.6 19.8 8.6 8.2 20.7-8.2 20.7-19.7 8.6-19.8-8.6z" fill="#FFF"/><path fill="#FFF" d="M32.4 43h-2.6l-6.4-17v17h-3.7V21.2h5.6l5.9 16 6-16h5.5V43h-3.6V26z"/><g transform="translate(0 -.2)"><path d="M99.5 39.7v-8.2A8.28 8.28 0 0 0 99 28a2.09 2.09 0 0 0-2.1-1.1 4.37 4.37 0 0 0-3.2 1.8c.085.864.119 1.732.1 2.6v8.4h-4.4v-8.2a8.892 8.892 0 0 0-.4-3.6 2.17 2.17 0 0 0-2.1-1.1c-1.2.116-2.31.689-3.1 1.6v11.2h-4.3V23.5h3.8l.3 2a5.69 5.69 0 0 1 4.7-2.3 5.181 5.181 0 0 1 4.6 2.7 6.06 6.06 0 0 1 5.4-2.7 5.261 5.261 0 0 1 4.2 2.1c1.3 1.6 1.4 3.7 1.4 6.1v8.4l-4.4-.1z" fill="#FFF"/><mask id="b" fill="#fff"><use xlink:href="#a"/></mask><path d="M107.4 39.7h4.4V23.5h-4.4v16.2zm0-18.4h4.4v-3.7h-4.4v3.7zm11.7 2.2l.3 2.2a6.11 6.11 0 0 1 5-2.6c1.68 0 3.267.775 4.3 2.1 1.3 1.6 1.4 3.7 1.4 6v8.4h-4.4v-8.1a8.28 8.28 0 0 0-.5-3.5 2.09 2.09 0 0 0-2.1-1.1 4 4 0 0 0-3.5 2.1v10.7h-4.4V23.5h3.9zm25 6.2a3.12 3.12 0 0 0-3.1-3.1 3.75 3.75 0 0 0-3.7 3.1h6.8zm-7.1 3a4.15 4.15 0 0 0 4.1 3.9 4.59 4.59 0 0 0 4.2-2.4l2.9 1.9a8 8 0 0 1-7.4 4c-4.9 0-8.2-3.4-8.2-8.3a8.27 8.27 0 0 1 7.9-8.6h.3a7.44 7.44 0 0 1 7.8 7.5 14.926 14.926 0 0 1-.2 2.1l-11.4-.1zm22.2-5.3a4.822 4.822 0 0 0-3-1.1 2.18 2.18 0 0 0-2.3 1.8v.2c0 1.2 1.5 1.8 3 2.3 2 .8 4.5 1.9 4.5 4.6 0 3.4-2.7 4.8-5.6 4.8a6.492 6.492 0 0 1-5.3-2.4l2-1.6a4.421 4.421 0 0 0 3.4 1.6c1.5 0 2.8-.8 2.8-2.4 0-1.2-1.4-1.8-3-2.4-2-.8-4.4-1.7-4.4-4.5 0-3.1 2.4-4.6 5-4.6a7.332 7.332 0 0 1 4.7 1.7l-1.8 2zm8.7-.6V35c.1 1.6.6 2.6 2.1 2.6a4.708 4.708 0 0 0 1.7-.4l.8 2.2a7.268 7.268 0 0 1-2.9.7 4 4 0 0 1-4.1-2.4 8.585 8.585 0 0 1-.5-3.2v-7.6h-2v-2.5h2.1v-3.7h2.8v3.7h4.3v2.5h-4.3v-.1zm13.6-.3a5.14 5.14 0 0 0-5 5.3v.1a5.17 5.17 0 0 0 4.823 5.496l.077.004h.1a5.14 5.14 0 0 0 5.001-5.276l-.001-.024V32a5.32 5.32 0 0 0-5-5.5m7.8 5.5a8 8 0 0 1-7.6 8.1h-.2a7.81 7.81 0 0 1-7.8-7.8v-.2a7.83 7.83 0 0 1 7.657-7.999l.043-.001h.2a7.81 7.81 0 0 1 7.8 7.8c-.1 0-.1 0-.1.1m6.1-5.1c.9-1.7 2.3-2.9 4-2.9.571.017 1.14.084 1.7.2l-.5 3a3.194 3.194 0 0 0-1.4-.3c-1.6 0-2.7.9-3.7 2.6v10.3h-2.8V24.3h2.8l-.1 2.6zm9.3 3.6h8.7a4.19 4.19 0 0 0-4.1-4.1c-2.5 0-4.1 1.8-4.6 4.1zm-.2 2.2a5 5 0 0 0 5 5 5 5 0 0 0 4.6-2.5l2 1.3a7.178 7.178 0 0 1-6.7 3.6c-4.9 0-7.6-3.6-7.6-8.1a7.59 7.59 0 0 1 7.4-8h.2a6.91 6.91 0 0 1 7 6.8v.4a8.57 8.57 0 0 1-.1 1.6l-11.8-.1z" fill="#FFF" mask="url(#b)"/></g></g></svg>
